icon-themes/sifr_svg/cmd/lc_extrusiontiltright.svg

<svg viewBox="0 0 24 24" xmlns="http://www.w3.org/2000/svg"><path d="m12 2a9 9 0 0 0 -9 9 9 9 0 0 0 9 9v2l3-3-3-3v2a7 7 0 0 1 -7-7 7 7 0 0 1 7-7 7 7 0 0 1 7 7h2a9 9 0 0 0 -9-9zm0 7a2 2 0 0 0 -2 2 2 2 0 0 0 2 2 2 2 0 0 0 2-2 2 2 0 0 0 -2-2z" fill="#555753"/></svg>

<svg xmlns="http://www.w3.org/2000/svg" viewBox="0 0 24 24">
  <path
     style="fill:#555753"
     d="M 12 2 A 9 9 0 0 0 3 11 A 9 9 0 0 0 12 20 L 12 22 L 15 19 L 12 16 L 12 18 A 7 7 0 0 1 5 11 A 7 7 0 0 1 12 4 A 7 7 0 0 1 19 11 L 21 11 A 9 9 0 0 0 12 2 z M 12 9 A 2 2 0 0 0 10 11 A 2 2 0 0 0 12 13 A 2 2 0 0 0 14 11 A 2 2 0 0 0 12 9 z "
     />
</svg>
